X: 19680
T: Jennifer Molloy's
R: jig
M: 6/8
K: Edorian
|:F|GEE BEE|eBd cAG|FDD ADD|ded AGF|
GEE BEE|GEG B2 c|dcd AGF|GED E2:|
|:D|EGB e2 f|geg fdA|DFA dcd|f/g/af dAF|
EGB e2 f|geg fed|BAG FGA|B/A/GE E2:|

